!!!COM: Palestrina, Giovanni Perluigi da
!!!OPR: Missa Spem In Alium
!!!OMD: Credo
!!!OTL: First Section
**kern	**kern	**kern	**kern
*Ibass	*Itenor	*Icalto	*Icant
!Bassus	!Tenor	!Altus	!Cantus
*clefF4	*clefGv2	*clefG2	*clefG2
*k[]	*k[]	*k[]	*k[]
*A:aeo	*A:aeo	*A:aeo	*A:aeo
*M4/2	*M4/2	*M4/2	*M4/2
=1	=1	=1	=1
0r	0r	1r	0ee
.	.	[1a	.
=2	=2	=2	=2
0r	0r	1a]	1cc
.	.	1d	[1ff
=3	=3	=3	=3
0r	0r	1a	2ff]
.	.	.	2ee
.	.	2b	1dd
.	.	2b	.
=4	=4	=4	=4
0r	0e	2cc	1.ee
.	.	4b	.
.	.	4a	.
.	.	4g	.
.	.	4a	.
.	.	[2b	2dd
=5	=5	=5	=5
0r	1A	4b]	1cc
.	.	4a	.
.	.	1a	.
.	1e	.	1b
.	.	2g#	.
=6	=6	=6	=6
[0A	2e	2a	[0a
.	2e	2A	.
.	2f	4A	.
.	.	4B	.
.	4e	4c	.
.	4d	4d	.
=7	=7	=7	=7
1A]	4c	2e	0a]
.	4d	.	.
.	2.e	2c	.
1D	.	1f	.
.	4d	.	.
.	[2d	.	.
=8	=8	=8	=8
1A	2d]	1e	0r
.	2c#	.	.
2B-	1d	2r	.
2B-	.	2d	.
=9	=9	=9	=9
1A	1e	2d	1a
.	.	2c	.
4D	1d	1f	1a
4E	.	.	.
4F	.	.	.
4G	.	.	.
=10	=10	=10	=10
0A	0r	2e	1a
.	.	2.a	.
.	.	.	1cc
.	.	4g	.
.	.	2e	.
=11	=11	=11	=11
1r	2r	1f	2dd
.	1d	.	2dd
2r	.	1e	1ee
[2A	2c	.	.
=12	=12	=12	=12
2A]	2f	2r	2.cc
2F	2f	2a	.
.	.	.	4dd
2c	2e	2g	1ee
2c	[2a	[2cc	.
=13	=13	=13	=13
2A	4a]	2cc]	1r
.	4g	.	.
2.d	4f	2a	.
.	4e	.	.
.	1f	1a	2r
4c	.	.	.
2A	.	.	[2a
=14	=14	=14	=14
2B-	1d	2f	2a]
2B-	.	2d	2g
2.A	1e	2a	1cc
.	.	[2e	.
8G	.	.	.
8F	.	.	.
=15	=15	=15	=15
2G	2r	2e]	2b
2A	1e	2c	2.ee
1E	.	1g	.
.	.	.	4dd
.	2e	.	2b
=16	=16	=16	=16
0r	2c	2e	2cc
.	2A	1a	2cc
.	2e	.	1b
.	2e	2g#	.
=17	=17	=17	=17
2r	1A	0a	4cc
.	.	.	4b
1A	.	.	4cc
.	.	.	4dd
.	2r	.	[1ee
2A	[2A	.	.
=18	=18	=18	=18
2.c	2A]	2r	0ee]
.	2A	1e	.
4B	.	.	.
2A	2.c	.	.
2A	.	2e	.
.	4d	.	.
=19	=19	=19	=19
2E	2e	2g	0r
2A	2c	2a	.
1G	1d	2b	.
.	.	2g	.
=20	=20	=20	=20
0F	1f	2a	2r
.	.	2.cc	1a
.	1f	.	.
.	.	4b	.
.	.	[2a	2a
=21	=21	=21	=21
1C	2.e	2a]	2.cc
.	.	4g	.
.	4d	4f	4dd
1r	2c	2g	2ee
.	2A	2a	2cc
=22	=22	=22	=22
1r	1B-	2f	1dd
.	.	2g	.
1D	1A	[1a	1ff
=23	=23	=23	=23
2D	2r	1a]	1ff
2D	2A	.	.
2.F	2A	2r	1ff
.	2A	2A	.
4G	.	.	.
=24	=24	=24	=24
1.A	2.c	2A	1ee
.	.	2A	.
.	4d	.	.
.	2e	2c	1r
2F	2A	2d	.
=25	=25	=25	=25
2G	2B	2e	1r
2A	2c#	2e	.
1D	2d	2.f	1a
.	2d	.	.
.	.	4e	.
=26	=26	=26	=26
1A	1e	4c	2a
.	.	4d	.
.	.	2.e	2a
1F	2r	.	2cc
.	.	4d	.
.	2a	[2d	2dd
=27	=27	=27	=27
2E	2g	2d]	2ee
2E	2g	2c#	2ee
1D	2f	2d	2.ff
.	2d	[2a	.
.	.	.	4ee
=28	=28	=28	=28
0r	2f	2a]	4cc
.	.	.	4dd
.	2c	2g	2.ee
.	2d	2f	.
.	.	.	4dd
.	2G	2g	[2dd
=29	=29	=29	=29
1A	2A	1e	2dd]
.	1a	.	2cc#
2D	.	1d	1dd
[2d	2d	.	.
=30	=30	=30	=30
2d]	2f	2r	0r
2c	2e	1a	.
2.f	2.d	.	.
.	.	2d	.
4e	4e	.	.
=31	=31	=31	=31
2d	2f	1a	0r
2c	2e	.	.
2B	2d	2g	.
[2A	2e	[2cc	.
=32	=32	=32	=32
4A]	1A	4cc]	0r
4B	.	4b	.
4c	.	2a	.
4d	.	.	.
2e	1r	2g	.
[2d	.	2f	.
=33	=33	=33	=33
2d]	2r	1e	1r
4c	1e	.	.
4B	.	.	.
1c	.	1A	2r
.	2A	.	[2ee
=34	=34	=34	=34
1A	1e	2r	2ee]
.	.	2a	2a
1r	2e	2g	2ee
.	2c	[2cc	2ee
=35	=35	=35	=35
0r	2.g	2cc]	2dd
.	.	4b	2.gg
.	4f	4a	.
.	4e	2b	.
.	4d	.	4ff
.	2c	2cc	2ee
=36	=36	=36	=36
0r	2G	2b	2dd
.	2A	1a	2cc
.	1e	.	2b
.	.	2g	2b
=37	=37	=37	=37
1A	1r	2f	0a
.	.	4e	.
.	.	4d	.
2A	1c	1e	.
2A	.	.	.
=38	=38	=38	=38
1B-	2d	1r	0r
.	2d	.	.
[1A	1f	1a	.
=39	=39	=39	=39
1A]	1e	2a	1cc
.	.	2a	.
1r	1r	2b-	2dd
.	.	2b-	2dd
=40	=40	=40	=40
1r	2r	1a	2ff
.	1d	.	2ff
1A	.	2r	1ee
.	2c	[2a	.
=41	=41	=41	=41
1D	1f	2a]	2r
.	.	2a	1dd
1A	1e	1a	.
.	.	.	2cc
=42	=42	=42	=42
2F	1A	0a	1ff
2D	.	.	.
2.A	2.c	.	1ee
4B	4d	.	.
=43	=43	=43	=43
2c	2e	2r	1a
2d	1f	1a	.
2.A	.	.	2.cc
.	[2e	[2cc	.
4B	.	.	4dd
=44	=44	=44	=44
2c	2e]	2cc]	2ee
2d	1d	2.b-	1ff
1A	.	.	.
.	.	4a	.
.	2c#	[2a	[2ee
=45	=45	=45	=45
1B-	1d	2a]	4ee]
.	.	.	4dd
.	.	2g	1dd
1A	1e	1a	.
.	.	.	2cc#
=46	=46	=46	=46
[0D	1d	2r	0dd
.	.	1a	.
.	2r	.	.
.	[2d	2a	.
=47	=47	=47	=47
1D]	2d]	2a	0r
.	2d	2f	.
1r	2d	2b-	.
.	2c	[2a	.
=48	=48	=48	=48
0r	1.f	4a]	1.a
.	.	4g	.
.	.	4f	.
.	.	4e	.
.	.	2d	.
.	2e	2c#	2a
=49	=49	=49	=49
1r	2f	2d	2a
.	2d	2B-	2g
2r	2e	1A	1cc
[2A	2f	.	.
=50	=50	=50	=50
2A]	1e	2r	2a
2A	.	1c	1a
2A	2e	.	.
2F	[2f	2c	2a
=51	=51	=51	=51
2B-	4f]	2d	2f
.	4e	.	.
2B-	1d	2d	2g
1A	.	2f	2.a
.	2c	2e	.
.	.	.	4b
=52	=52	=52	=52
1A	2A	2.a	4cc
.	.	.	4dd
.	2c	.	1ee
.	.	4g	.
1r	1d	1f	.
.	.	.	[2dd
=53	=53	=53	=53
2r	1A	0e	2dd]
1A	.	.	4cc
.	.	.	4b
.	2r	.	2cc
2G	[2e	.	2b
=54	=54	=54	=54
2c	2e]	0r	1g
2B	2d	.	.
2A	2f	.	1a
2c	2e	.	.
=55	=55	=55	=55
2B	2d	0r	0r
2.A	2f	.	.
.	2e	.	.
4G	.	.	.
4F	[2d	.	.
4E	.	.	.
=56	=56	=56	=56
2D	2d]	1r	1a
1A	2c	.	.
.	1B	2r	2b
2G#	.	2e	2b
=57	=57	=57	=57
1A	1A	2e	2.cc
.	.	2f	.
.	.	.	4dd
1r	1r	2g	2ee
.	.	[2a	[2ff
=58	=58	=58	=58
0r	1A	4a]	4ff]
.	.	4g	4ee
.	.	2e	1ee
.	2A	2f	.
.	2B	2f	2dd
=59	=59	=59	=59
2r	2c	1e	1ee
2E	2B	.	.
2E	2.c	1r	1r
2F	.	.	.
.	4d	.	.
=60	=60	=60	=60
2G	2e	0r	0r
1A	2.f	.	.
.	4e	.	.
2E	[2e	.	.
=61	=61	=61	=61
1F	2e]	2r	1r
.	2d	1a	.
1E	2.e	.	2r
.	.	[2g	[2ee
.	4d	.	.
=62	=62	=62	=62
0r	2c	2g]	2ee]
.	2d	2f	1dd
.	1A	1e	.
.	.	.	2cc
=63	=63	=63	=63
1r	0r	2.d	2b
.	.	.	2.a
.	.	4c	.
2r	.	2B	.
.	.	.	4g
[2e	.	2c	[2g
=64	=64	=64	=64
2e]	1r	1d	2g]
1d	.	.	2f
.	2r	1A	1e
2c	[2a	.	.
=65	=65	=65	=65
1B	2a]	2r	1d
.	2g	1d	.
1A	2f	.	1r
.	[2e	2c	.
=66	=66	=66	=66
2G	2e]	2B	1r
2F	1d	2A	.
1E	.	1G	2r
.	2c#	.	[2gg
=67	=67	=67	=67
1D	2d	2.A	2gg]
.	1a	.	1ff
.	.	4B	.
1C	.	1c	.
.	[2g	.	2ee
=68	=68	=68	=68
1D	2g]	2A	1dd
.	2f	1a	.
2.E	1e	.	2cc
.	.	[2g	[2b
4F	.	.	.
=69	=69	=69	=69
2G	2d	2g]	2b]
2A	2c	2f	1a
1E	1B	[1e	.
.	.	.	2g#
=70	=70	=70	=70
1A	1A	1e]	1a
1r	1r	1r	1r
=71	=71	=71	=71
0F	0f	0a	0cc
=72	=72	=72	=72
1F	1f	1a	1cc
1C	1e	1g	1cc
=73	=73	=73	=73
1G	1d	1.g	1b
1G	2e	.	1b
.	[2d	2f	.
=74	=74	=74	=74
0A	2d]	1e	0a
.	4c	.	.
.	4B	.	.
.	2c	2r	.
.	2A	2e	.
=75	=75	=75	=75
2r	1d	1f	2r
2D	.	.	2a
1A	2c	2e	1a
.	2c	2f	.
=76	=76	=76	=76
2G	1d	0g	2b
2G	.	.	2b
1c	1e	.	1cc
=77	=77	=77	=77
1F	1f	1a	1cc
2r	2r	2r	2r
[2F	[2f	[2a	[2cc
=78	=78	=78	=78
2F]	2f]	2a]	2cc]
2F	2f	2a	2cc
1G	1d	1g	1b
=79	=79	=79	=79
1A	1c	1e	1a
1F	1A	1a	1cc
=80	=80	=80	=80
1F	1A	1a	1dd
1E	2B	2g	[1ee
.	[2G	2e	.
=81	=81	=81	=81
1C	2G]	0g	1ee]
.	1c	.	.
1G	.	.	1dd
.	2B	.	.
=82	=82	=82	=82
0C	1c	1g	1ee
.	1e	[1g	1cc
=83	=83	=83	=83
1D	2.d	2g]	2b
.	.	2f	1a
.	4c	.	.
1E	1B	1e	.
.	.	.	2g#
=84	=84	=84	=84
0A	0A	0e	0a
*-	*-	*-	*-
!!!CDT: 1525/^1526/-1594/2/2
!!!OCY: Italia
!!!AGN: Mass (Parody)
!!!AST: renaissance, vocal
!!!ASW: Motet 1539 (Jacquet)
!!!PWK: Masses, Book 3
!!!RNB: Cadence finals: D
!!!YOR: Le Opere Complete, v. 6, p. 1
!!!YOO: Rome, Italy: Fratelli Scalera
!!!END: 1992//
!!!EED: John Miller
!!!YEC: Copyright 2000, John Miller
!!!YEN: United States of America
!!!YEM: Rights to all derivative electronic formats reserved.
!!!YEM: Refer to licensing agreement for further details.
!!!YEM: This file must be accompanied by the licensing agreement.
!!!YEM: A copy of the licensing agreement may be found at http://www.music-cog.ohio-state.edu/HumdrumDatabases/Palestrina/license.txt
!!!EMD: converted to Humdrum by Bret Aarden
